X:1
T:In a City Lining
T:In a City Lining
T:Dr. Tim Smith (b. 1961) arr. by N074L3N7 
C:Tim Smith (b. 1961)
%%score { ( 1 3 5 ) | ( 2 4 ) }
L:1/8
Q:1/4=150
M:6/4
K:F
V:1 treble nm="Piano" snm="Pno."
V:3 treble 
V:5 treble 
V:2 bass 
V:4 bass 
V:1
|:"^and use as much rubato as you want!\n" [FAcf]8 [EGce]4 | [_E_Ac_e]8"^repeat 4×" [_DFA_d]4 :: %2
 F2 c2 c3 ccGGG | _A2 _e2 e3 ee_ddd | c2 f4 c4 z2 | z12 :|[K:F#]S"_accel." (F2 c2 c2 cG G2 GG | %7
 =A2 =e2 ee e2 =d2[Q:1/4=155] dd | c2 f2[Q:1/4=160] c6) (d2 |[Q:1/4=165] =e4 dc[Q:1/4=170] B4 G2) | %10
[Q:1/4=175] F2 c2 c2 cGGGGG |[Q:1/4=180] =AA =e2 ee e2 =d4 |[Q:1/4=190] c2 f2 c6 (d2 | %13
[Q:1/4=200] =e4 dc[Q:1/4=220] B4-) B=G ||[K:G][Q:1/4=240]"^\n" GG d2 dd[Q:1/4=245] d2 A2 A2 | %15
[Q:1/4=250] _B2 =f2 f2[Q:1/4=260]"^\n" f_e e2 e2[Q:1/4=255][Q:1/4=265] | %16
 [B,DG]2 [DGB]2 [D,G,B,]2 [GBd]2 [DF]A[DF][Ad] | %17
 !>![_Bd=f]2 [=FBd]2 [DFB]2 [FBd]2 .[_EGB_e].[EGBe].[EGBe].[EGBe] | G2 d2 dd dAAA A2 | %19
 _B2 =ffff f_e e2 e2 | [B,DG]2 [G,B,D]2 [D,G,B,]2 [GBd]2 [DF]A[DF][Ad] | %21
[M:4/4][Q:1/4=260] [_Bd=f]2[Q:1/4=240]"_rit." [=FBd]2[Q:1/4=220] [DFB]2[Q:1/4=180] [FBd]2 |: %22
[M:2/4][Q:1/4=140] .[_EG_B_e].[EGBe] .[EGBe].[EGBe] |[K:Ab][M:6/4] A2 E4- EEC=DEB, | A2 E6 _CDEC | %25
[M:4/4] _G2"^repeat 4×" _F6!dacoda! :|[M:2/4] [E,G,B,E]4 |[K:F][M:6/4] F2 cc c3 ccG G2 | %28
 _A2 _ee e3 ee_d d2 | [cf]2 [Ac]2 [FA]2 [Ac]2 [Gc][EG][Gc][ce] | %30
 [_E_A]2 [Ac]2 [c_e]2 [e_a]2 [fa][_df][Ad][df] | F2 cc c3 ccG G2 | _A2 _ee e3 ee_d d2 | %33
 [CF]2 [A,C]2 [F,A,]2 [A,C]2 [G,C][E,G,][G,C][CE] | %34
 [_E,_A,]2 [A,C]2 [C_E]2 [E_A]2 [FA][_DF][A,D][DF]!D.S.! |O"_rit." ^C2 =B,^A, ^G,8 | G4 E2 =B6- | %37
 B4 [_D,=F,_A,_D]4 [_E,G,_B,_E]4- | [E,G,B,E]12 | %39
[K:Ab][Q:1/4=120]"^Maestoso" [A,CEA]4 [E,A,CE]4 [B,,E,G,B,][E,E][E,G,B,E][E,G,B,E] | %40
 [A,CEA]4 [E,A,CE]4 [=B,,^D,^F,=B,][^C,^C][D,F,B,^D][B,,D,F,B,] | %41
 [=E,^G,=B,^F]4 [E,G,B,=E]4 [_E,=G,_B,_E][E,G,B,E][E,G,B,E][E,G,B,E] | %42
 [A,CEA]4 [E,A,CE]4 [E,G,B,E][E,E][E,G,B,E][E,G,B,E] | %43
 [A,CEA]4 [E,A,CE]4 [=B,,^D,^F,=B,][^C,^C] [D,F,B,^D]2 | %44
 [=E,^G,=B,^F]4 [E,G,B,=E]4 [_E,=G,_B,_E]4 |: %45
[Q:1/4=150]"^Vivace" !tenuto!.A3 (e.=d).c .B.e(c.d).e.a | !tenuto!.A3 (e.=d).c .B.e(c.d).e.a | %47
 !tenuto!.c3 (g.^f).=e .=d.g(c.d)._e"^repeat 4×".a :: !tenuto!.A3 (e.=d).c .B.e(c.d).e.a | %49
 !tenuto!.A3 (e.=d).c"^repeat and accel. until it's so fast that the riff becomes random notes\n" .B.e(_c._d).e._g | %50
 !tenuto!._F3 (e.d).=B ._B2 .[Beg].[Beg].[Beg].[Beg] :| %51
[Q:1/4=280][Q:1/4=280]"^Prestissimo" [EAc]8 [EGB]4 | [EAc]8 [^D^F=B]4 | [=E^G=B]8 [_E=G_B]4 | %54
[Q:1/4=360] [CEA]12- | [CEA]12 |] %56
V:2
|: F,,2 F,,F,, C,4 C,C, G,2 | _A,,2 A,,A,, _E,4 _D,D, _A,2 :: z2 z z z4 [G,C]4 | _A,8 [F,A,_D]4 | %4
 A,8 G,4 | z12 :|[K:F#] .F,,2 .[A,CF]2 .[A,CF]2 .C,,2 .[G,CE]2 .[G,CE]2 | %7
 .=A,,,2 .[=A,C=E]2 .[A,CE]2 .=D,,2 .[A,=DF]2 .[A,DF]2 | %8
 .F,,2 .[A,CF]2 .[A,CF]2 .C,,2 .[G,CE]2 .[G,CE]2 | %9
 .=A,,,2 .[=A,C=E]2 .[A,CE]2 .=E,,2 .[G,B,E]2 .[G,B,E]2 | %10
 .F,,2 .[A,CF]2 .[A,CF]2 .C,,2 .[G,CE]2 .[G,CE]2 | %11
 .=A,,,2 .[=A,C=E]2 .[A,CE]2 .=D,,2 .[A,=DF]2 .[A,DF]2 | %12
 .F,,2 .[A,CF]2 .[A,CF]2 .C,,2 .[G,CE]2 .[G,CE]2 | %13
 .=A,,,2 .[=A,C=E]2 .[A,CE]2 .=E,,2 .[G,B,E]2 .[G,B,E]2 || %14
[K:G]!ped! B,G!>![G,D]B,GD!ped-up!!ped! !>![A,F]DA,F!>![A,D]A,!ped-up! | %15
!ped! D_B,!>![D=F]_BFD!ped-up!!ped! !>![G,_E]B,EG!>![B,E]B,!ped-up! | G,,2 D,2 G,,2 D,2 D,2 A,2 | %17
 _B,,2 =F,2 B,,2 F,2 _E,2 _B,2 |!ped! DG!>![G,D]B,GD!ped-up!!ped! !>![A,F]DA,F!>![A,D]A,!ped-up! | %19
!ped! D_B,!>![D=F]_BFD!ped-up!!ped! !>![G,_E]B,EG!>![B,E]B,!ped-up! | z12 | %21
[M:4/4] _B,,2 =F,2 B,,2 F,2 |:[M:2/4] .[_E,,_E,].[E,,E,] .[E,,E,].[E,,E,] | %23
[K:Ab][M:6/4] z2 [CEA]4 [CEA]2 z2 [B,EG]2 | z2 [CEA]4 [CEA]2 z2 [_CE_G]2 | %25
[M:4/4] z2 [_C_FA]4 [CFA]2 :|[M:2/4] E,4 |[K:F][M:6/4] z2 z z z4 [G,C]4 | _A,8 [F,A,_D]4 | %29
 A,8 G,4 | z12 | z8 [G,C]4 | _A,8 [F,A,_D]4 | F,,2 F,,F,, C,4 C,C, G,2 | %34
 _A,,2 A,,A,, _E,4 _D,D, _A,2 | [^C,^F,^A,]4 [=B,,E,^G,]8 | _E,,2 B,,,2 =E,,2 =B,,,6- | %37
 B,,,4 _D,,4 _E,,4- | E,,12 |[K:Ab] [A,,,A,,]8 [E,,,E,,]4 | [A,,,A,,]8 [=B,,,,=B,,,]4 | %41
 [=E,,,=E,,]8 [_E,,,_E,,]4 | [A,,,A,,]8 [E,,,E,,]4 | [A,,,A,,]8 [=B,,,,=B,,,]4 | %44
 [=E,,,=E,,]8 [_E,,,_E,,]4 |: z .[CEA] z .[CEA] z .[CEA] z .[CEA] z .[B,EG] z .[B,EG] | %46
 z .[CEA] z .[CEA] z .[CEA] z .[CEA] z .[B,EG] z .[B,EG] | %47
 z .[C=EG] z .[CEG] z .[CEG] z .[CEG] z .[B,_EG] z .[B,EG] :: z2 [E,A,C]4 [E,A,C]2 z2 [E,G,B,]2 | %49
 z2 [E,A,C]4 [E,A,C]2 z2 [E,_G,_C]2 | z2 [_F,A,_C]4 [F,A,C]2 z2 [E,G,B,]2 :| %51
 z2 [E,A,C]4 [E,A,C]2 z2 [E,G,B,]2 | z2 [E,A,C]4 [E,A,C]2 z2 [^D,^F,=B,]2 | %53
 z2 [=E,^G,=B,]4 [E,G,B,]2 z2 [_E,=G,_B,]2 |!ped! A,,E,A,C[I:staff -1]A,E AcAeac' | %55
 ae'a'c''a'e'' a''c'''- c'''4!ped-up! |] %56
V:3
|: x12 | x12 :: [A,CF]8 E4 | [C_E]8 z4 | [CF]8 [CE]4 | [_A,C_E]8"^repeat 4×" [F,A,_D]4 :| %6
[K:F#] x12 | x12 | x12 | x12 | x12 | x12 | x12 | x12 ||[K:G] x12 | x12 | x12 | x8 x2 x z | x12 | %19
 x12 | x12 |[M:4/4] x8 |:[M:2/4] x4 |[K:Ab][M:6/4] x12 | x12 |[M:4/4] x8 :|[M:2/4] x4 | %27
[K:F][M:6/4] [A,CF]8 E4 | [C_E]8 z4 | F8 [CE]4 | [_A,C]8 [F,A,_D]4 | [A,CF]8 E4 | [C_E]8 z4 | x12 | %34
 x12 | x12 | G,2 _E,2 =E,2 _A,2 ^D,4- | D,4 x8 | x12 |[K:Ab] x12 | x12 | x12 | x12 | x12 | x12 |: %45
 x12 | x12 | x12 :: x12 | x12 | x12 :| x12 | x12 | x12 | x12 | x12 |] %56
V:4
|: x12 | x12 :: F,,2 F,,F,, C,4 C,C, G,2 | _A,,2 A,,A,, _E,4 _D,D, _A,2 | %4
 F,,2 F,,F,, C,4 C,C, G,2 | _A,,2 A,,A,, _E,4 _D,D, _A,2 :|[K:F#] x12 | x12 | x12 | x12 | x12 | %11
 x12 | x12 | x12 ||[K:G] G,,3 D,3 D,3 A,3 | _B,,3 =F,3 _E,3 _B,3 | x12 | x12 | G,,3 D,3 D,3 A,3 | %19
 _B,,3 =F,3 _E,3 _B,3 | G,,2 D,2 G,,2 D,2 D,2 A,2 |[M:4/4] x8 |:[M:2/4] x4 | %23
[K:Ab][M:6/4] A,,4 A,,4 E,,4 | A,,4 A,,4 _C,4 |[M:4/4] _F,,4 F,,4 :|[M:2/4] E,,4 | %27
[K:F][M:6/4] F,,2 F,,F,, C,4 C,C, G,2 | _A,,2 A,,A,, _E,4 _D,D, _A,2 | F,,2 F,,F,, C,4 C,C, G,2 | %30
 _A,,2 A,,A,, _E,4 _D,D, _A,2 | F,,2 F,,F,, C,4 C,C, G,2 | _A,,2 A,,A,, _E,4 _D,D, _A,2 | x12 | %34
 x12 | ^F,,4 E,,8 | x12 | x12 | x12 |[K:Ab] x12 | x12 | x12 | x12 | x12 | x12 |: %45
 A,,2 A,,<A,, A,,2 A,,<A,, E,,2 E,,<E,, | A,,2 A,,<A,, A,,2 A,,<A,, E,,2 E,,<E,, | %47
 C,2 C,<C, C,2 C,<C, E,2 E,<E, :: [A,,,A,,]4 [A,,,A,,]4 [E,,,E,,]4 | %49
 [A,,,A,,]4 [A,,,A,,]4 [_C,,_C,]4 | [_F,,,_F,,]4 [F,,,F,,]4 [E,,,E,,]4 :| %51
 [A,,,A,,]4 [A,,,A,,]4 [E,,,E,,]4 | [A,,,A,,]4 [A,,,A,,]4 [=B,,,=B,,]4 | %53
 [=E,,,=E,,]4 [E,,,E,,]4 [_E,,,_E,,]4 | A,,,12- | A,,,12 |] %56
V:5
|: x12 | x12 :: x12 | x12 | x12 | x12 :|[K:F#] x12 | x12 | x12 | x12 | x12 | x12 | x12 | x12 || %14
[K:G] x12 | x12 | x12 | x12 | x12 | x12 | x12 |[M:4/4] x8 |:[M:2/4] x4 |[K:Ab][M:6/4] x12 | x12 | %25
[M:4/4] x8 :|[M:2/4] x4 |[K:F][M:6/4] x12 | x12 | x12 | x12 | x12 | x12 | x12 | x12 | x12 | %36
 x8 [^F,=B,]4- | [F,B,]4 x8 | x12 |[K:Ab] x12 | x12 | x12 | x12 | x12 | x12 |: x12 | x12 | x12 :: %48
 x12 | x12 | x12 :| x12 | x12 | x12 | x12 | x12 |] %56

